<?xml version="1.0" encoding="UTF-8"?>
<map version="1.9" tiledversion="1.9.2" orientation="orthogonal" renderorder="right-down" compressionlevel="0" width="19" height="17" tilewidth="16" tileheight="16" infinite="0" nextlayerid="17" nextobjectid="6">
 <properties>
  <property name="AmbientLight" value="80 80 40"/>
  <property name="ViewportFollowPlayer" type="bool" value="true"/>
  <property name="Warp" value=""/>
 </properties>
 <tileset firstgid="1" name="paths" tilewidth="16" tileheight="16" tilecount="64" columns="4">
  <image source="Content/paths.png" width="64" height="256"/>
 </tileset>
 <tileset firstgid="65" name="Sheet" tilewidth="16" tileheight="16" tilecount="936" columns="26">
  <image source="Sheet.png" width="416" height="576"/>
 </tileset>
 <tileset firstgid="1001" name="furniture" tilewidth="16" tileheight="16" tilecount="2976" columns="32">
  <image source="Content/TileSheets/furniture.png" width="512" height="1488"/>
 </tileset>
 <tileset firstgid="3977" name="townInterior" tilewidth="16" tileheight="16" tilecount="2176" columns="32">
  <image source="Content/townInterior.png" width="512" height="1088"/>
 </tileset>
 <tileset firstgid="6153" name="mine_frost_dangerous" tilewidth="16" tileheight="16" tilecount="288" columns="16">
  <image source="Content/Maps/Mines/mine_frost_dangerous.png" width="256" height="288"/>
 </tileset>
 <tileset firstgid="6441" name="LeoTreeHouse_Tilesheet" tilewidth="16" tileheight="16" tilecount="56" columns="7">
  <image source="Content/LeoTreeHouse_Tilesheet.png" width="112" height="128"/>
 </tileset>
 <layer id="1" name="Back" width="19" height="17">
  <data encoding="csv">
0,0,0,0,0,0,0,0,0,0,0,0,0,0,0,0,0,0,0,
3221231923,1073748275,3221231923,1073748275,3221231923,1073748275,3221231923,1073748275,1073748275,3221231923,1073748275,3221231923,1073748275,3221231923,1073748275,3221231923,1073748275,3221231923,0,
0,0,0,0,0,0,0,0,0,0,0,0,0,0,0,0,0,0,0,
0,0,0,0,0,0,0,0,0,0,0,0,0,0,0,0,0,0,0,
0,5050,5050,5050,5050,5050,5050,5050,5050,5050,5050,5050,5050,5050,5050,5050,5050,5050,0,
0,5050,5050,5050,5050,5050,5050,5050,5050,5050,5050,5050,5050,5050,5050,5050,5050,5050,0,
0,5050,5050,5050,5050,5050,5050,5050,5050,5050,5050,5050,5050,5050,5050,5050,5050,5050,0,
0,5050,5050,5050,5050,5050,5050,5050,5050,5050,5050,5050,5050,5050,5050,5050,5050,5050,0,
0,5050,5050,5050,5050,5050,5050,5050,5050,5050,5050,5050,5050,5050,5050,5050,5050,5050,0,
0,5050,5050,5050,5050,5050,5050,5050,5050,5050,5050,5050,5050,5050,5050,5050,5050,5050,0,
0,5050,5050,5050,5050,5050,5050,5050,5050,5050,5050,5050,5050,5050,5050,5050,5050,5050,0,
0,5050,5050,5050,5050,5050,5050,5050,5050,5050,5050,5050,5050,5050,5050,5050,5050,5050,0,
0,5050,5050,5050,5050,5050,5050,5050,5050,5050,5050,5050,5050,5050,5050,5050,5050,5050,0,
0,5050,5050,5050,5050,5050,5050,5050,5050,5050,5050,5050,5050,5050,5050,5050,5050,5050,0,
0,5050,5050,5050,5050,5050,5050,5050,5050,5050,5050,5050,5050,5050,5050,5050,5050,5050,0,
0,0,0,0,0,0,0,0,0,5050,0,0,0,0,0,0,0,0,0,
0,0,0,0,0,0,0,0,0,5050,0,0,0,0,0,0,0,0,0
</data>
 </layer>
 <layer id="13" name="Back1" width="19" height="17">
  <data encoding="csv">
0,0,0,0,0,0,0,0,0,0,0,0,0,0,0,0,0,0,0,
0,0,0,0,0,0,0,0,0,0,0,0,0,0,0,0,0,0,0,
0,0,0,0,0,0,0,0,0,0,0,0,0,0,0,0,0,0,0,
0,0,0,0,0,0,0,0,0,0,0,0,0,0,0,0,0,0,0,
0,0,0,0,0,0,0,0,0,0,0,0,0,0,0,0,0,0,0,
0,0,0,0,0,0,0,0,0,0,0,0,0,0,0,0,0,0,0,
0,0,0,0,0,0,0,0,0,0,0,0,0,0,0,0,0,0,0,
0,0,0,0,0,0,0,0,0,0,0,0,0,0,0,0,0,0,0,
0,0,0,0,0,0,0,0,0,0,0,0,0,0,0,0,0,0,0,
0,0,0,0,0,0,0,0,0,0,0,0,0,0,0,0,0,0,0,
0,0,0,0,0,0,0,0,0,0,0,0,0,0,0,0,0,0,0,
0,0,0,0,0,0,0,0,0,0,0,0,0,0,0,0,0,0,0,
0,0,0,0,0,0,0,0,0,0,0,0,0,0,0,0,0,0,0,
0,0,0,0,0,0,0,0,0,0,0,0,0,0,0,0,0,0,0,
0,0,0,0,0,0,0,0,0,0,0,0,0,0,0,0,0,0,0,
0,0,0,0,0,0,0,0,0,0,0,0,0,0,0,0,0,0,0,
0,0,0,0,0,0,0,0,0,0,0,0,0,0,0,0,0,0,0
</data>
 </layer>
 <layer id="15" name="Back2" width="19" height="17">
  <data encoding="csv">
0,0,0,0,0,0,0,0,0,0,0,0,0,0,0,0,0,0,0,
0,0,0,0,0,0,0,0,0,0,0,0,0,0,0,0,0,0,0,
0,0,0,0,0,0,0,0,0,0,0,0,0,0,0,0,0,0,0,
0,0,0,0,0,0,0,0,0,0,0,0,0,0,0,0,0,0,0,
0,0,0,0,0,0,0,0,0,0,0,0,0,0,0,0,0,0,0,
0,0,0,0,0,0,0,0,0,0,0,0,0,0,0,0,0,0,0,
0,0,0,0,0,0,0,0,0,0,0,0,0,0,0,0,0,0,0,
0,0,0,0,0,0,0,0,0,0,0,0,0,0,0,0,0,0,0,
0,0,0,0,0,0,0,0,0,0,0,0,0,0,0,0,0,0,0,
0,0,0,0,0,0,0,0,0,0,0,0,0,0,0,0,0,0,0,
0,0,0,0,0,0,0,0,0,0,0,0,0,0,0,0,0,0,0,
0,0,0,0,0,0,0,0,0,0,0,0,0,0,0,0,0,0,0,
0,0,0,0,0,0,0,0,0,0,0,0,0,0,0,0,0,0,0,
0,0,0,0,0,0,0,0,0,0,0,0,0,0,0,0,0,0,0,
0,0,0,0,0,0,0,0,0,0,0,0,0,0,0,0,0,0,0,
0,0,0,0,0,0,0,0,0,0,0,0,0,0,0,0,0,0,0,
0,0,0,0,0,0,0,0,0,0,0,0,0,0,0,0,0,0,0
</data>
 </layer>
 <layer id="2" name="Buildings" width="19" height="17">
  <data encoding="csv">
3977,3978,3979,3979,3979,3979,3979,3979,3979,3979,3979,3979,3979,3979,3979,3979,3979,3980,3977,
4009,4018,0,0,0,0,0,0,0,0,0,0,0,0,0,0,0,4020,4013,
4041,2147490099,6451,2147490099,6451,2147490099,6451,2147490099,6451,2147490099,6451,2147490099,6451,2147490099,6451,2147490099,6451,2147490099,4045,
4041,4083,4083,4083,4083,4083,4083,4083,4083,4083,4083,4083,4083,4083,4083,4083,4083,4083,4045,
4041,0,0,0,0,0,0,0,0,0,0,0,0,0,0,0,0,0,4045,
4041,0,5046,0,0,0,5046,0,0,0,5046,0,0,0,2147488694,0,0,0,4045,
4041,0,5078,5012,5013,0,5078,5012,5013,0,5078,5012,5013,0,2147488726,0,0,0,4045,
4041,0,5110,0,0,0,5110,0,0,0,5110,0,0,0,2147488758,0,0,0,4045,
4041,0,5142,5076,5077,0,5142,5076,5077,0,5142,5076,5077,0,2147488790,0,0,0,4045,
4041,0,5174,5175,5175,5175,5175,5175,5175,5175,5175,5175,5175,5175,2147488822,0,0,0,4045,
4041,0,0,0,0,0,0,0,0,0,0,0,0,0,0,0,0,0,4045,
4041,0,0,0,0,0,0,0,0,0,0,0,0,0,0,0,0,0,4045,
4041,0,0,0,0,0,0,0,0,0,0,0,0,0,0,0,0,0,4045,
4041,0,0,0,0,0,0,0,0,0,0,0,0,0,0,0,0,0,4045,
4137,4138,4142,4142,4142,4142,4142,4142,4139,0,2147487787,4142,4142,4142,4142,4142,4142,2147487786,2147487785,
3977,3977,3977,3977,3977,3977,3977,3977,4041,0,4045,3977,3977,3977,3977,3977,3977,3977,3977,
3977,3977,3977,3977,3977,3977,3977,3977,1073745810,1073745811,1073745812,3977,3977,3977,3977,3977,3977,3977,3977
</data>
 </layer>
 <layer id="4" name="Paths" width="19" height="17">
  <data encoding="csv">
0,0,0,0,0,0,0,0,0,0,0,0,0,0,0,0,0,0,0,
0,0,0,0,0,0,0,0,0,0,0,0,0,0,0,0,0,0,0,
0,0,0,0,0,0,0,0,0,0,0,0,0,0,0,0,0,0,0,
0,0,0,0,0,0,0,0,0,0,0,0,0,0,0,0,0,0,0,
0,0,0,0,0,0,0,0,0,0,0,0,0,0,0,0,0,0,0,
0,0,0,0,0,0,0,0,0,0,0,0,0,0,0,0,0,0,0,
0,0,0,0,0,0,0,0,0,0,0,0,0,0,0,0,0,0,0,
0,0,0,0,0,0,0,0,0,0,0,0,0,0,0,0,0,0,0,
0,0,0,0,0,0,0,0,0,9,0,0,0,0,0,0,0,0,0,
0,0,0,0,0,0,0,0,0,0,0,0,0,0,0,0,0,0,0,
0,0,0,0,0,0,0,0,0,0,0,0,0,0,0,0,0,0,0,
0,0,0,0,0,0,0,0,0,0,0,0,0,0,0,0,0,0,0,
0,0,0,0,0,0,0,0,0,0,0,0,0,0,0,0,0,0,0,
0,0,0,0,0,0,0,0,0,0,0,0,0,0,0,0,0,0,0,
0,0,0,0,0,0,0,0,0,0,0,0,0,0,0,0,0,0,0,
0,0,0,0,0,0,0,0,0,0,0,0,0,0,0,0,0,0,0,
0,0,0,0,0,0,0,0,0,0,0,0,0,0,0,0,0,0,0
</data>
 </layer>
 <layer id="3" name="Front" width="19" height="17">
  <data encoding="csv">
0,0,0,0,0,0,0,0,0,0,0,0,0,0,0,0,0,0,0,
0,0,0,0,0,0,0,0,0,0,0,0,0,0,0,0,0,0,0,
0,0,0,0,0,0,0,0,0,0,0,0,0,0,0,0,0,0,0,
0,0,0,0,0,0,0,0,0,0,0,0,0,0,0,0,0,0,0,
0,0,5014,0,0,0,5014,0,0,0,5014,0,0,0,2147488662,0,0,0,0,
0,0,0,0,0,0,0,0,0,0,0,0,0,0,0,0,0,0,0,
0,0,0,0,0,0,0,0,0,0,0,0,0,0,0,0,0,0,0,
0,0,0,5044,5045,5111,5112,5044,5045,5111,5112,5044,5045,5111,0,0,0,0,0,
0,0,0,5143,5143,5143,5144,5143,5143,5143,5144,5143,5143,5143,0,0,0,0,0,
0,0,0,0,0,0,5176,0,0,0,5176,0,0,0,0,0,0,0,0,
0,0,0,0,0,0,0,0,0,0,0,0,0,0,0,0,0,0,0,
0,0,0,0,0,0,0,0,0,0,0,0,0,0,0,0,0,0,0,
0,0,0,0,0,0,0,0,0,0,0,0,0,0,0,0,0,0,0,
0,0,0,0,0,0,0,0,0,0,0,0,0,0,0,0,0,0,0,
0,0,0,0,0,0,0,0,0,0,0,0,0,0,0,0,0,0,0,
0,0,0,0,0,0,0,0,0,0,0,0,0,0,0,0,0,0,0,
0,0,0,0,0,0,0,0,0,0,0,0,0,0,0,0,0,0,0
</data>
 </layer>
 <layer id="11" name="Front1" width="19" height="17">
  <data encoding="csv">
0,0,0,0,0,0,0,0,0,0,0,0,0,0,0,0,0,0,0,
0,0,0,0,0,0,0,0,0,0,0,0,0,0,0,0,0,0,0,
0,0,0,0,0,0,0,0,0,0,0,0,0,0,0,0,0,0,0,
0,0,0,0,0,0,0,0,0,0,0,0,0,0,0,0,0,0,0,
0,0,0,0,0,0,0,0,0,0,0,0,0,0,0,0,0,0,0,
0,0,0,0,0,0,0,0,0,0,0,0,0,0,0,0,0,0,0,
0,0,0,0,0,0,0,0,0,0,0,0,0,0,0,0,0,0,0,
0,0,0,0,0,0,0,0,0,0,0,0,0,0,0,0,0,0,0,
0,0,0,0,0,0,0,0,0,0,0,0,0,0,0,0,0,0,0,
0,0,0,0,0,0,0,0,0,0,0,0,0,0,0,0,0,0,0,
0,0,0,0,0,0,0,0,0,0,0,0,0,0,0,0,0,0,0,
0,0,0,0,0,0,0,0,0,0,0,0,0,0,0,0,0,0,0,
0,0,0,0,0,0,0,0,0,0,0,0,0,0,0,0,0,0,0,
0,0,0,0,0,0,0,0,0,0,0,0,0,0,0,0,0,0,0,
0,0,0,0,0,0,0,0,0,0,0,0,0,0,0,0,0,0,0,
0,0,0,0,0,0,0,0,0,0,0,0,0,0,0,0,0,0,0,
0,0,0,0,0,0,0,0,0,0,0,0,0,0,0,0,0,0,0
</data>
 </layer>
 <layer id="9" name="AlwaysFront" width="19" height="17">
  <data encoding="csv">
0,0,0,0,0,0,0,0,0,0,0,0,0,0,0,0,0,0,0,
0,0,0,0,0,0,0,0,0,0,0,0,0,0,0,0,0,0,0,
0,0,0,0,0,0,0,0,0,0,0,0,0,0,0,0,0,0,0,
0,0,0,0,0,0,0,0,0,0,0,0,0,0,0,0,0,0,0,
0,0,0,0,0,0,0,0,0,0,0,0,0,0,0,0,0,0,0,
0,0,0,0,0,0,0,0,0,0,0,0,0,0,0,0,0,0,0,
0,0,0,0,0,0,0,0,0,0,0,0,0,0,0,0,0,0,0,
0,0,0,5111,5111,0,0,5111,5111,0,0,5111,5111,0,0,0,0,0,0,
0,0,0,0,0,0,0,0,0,0,0,0,0,0,0,0,0,0,0,
0,0,0,0,0,0,0,0,0,0,0,0,0,0,0,0,0,0,0,
0,0,0,0,0,0,0,0,0,0,0,0,0,0,0,0,0,0,0,
0,0,0,0,0,0,0,0,0,0,0,0,0,0,0,0,0,0,0,
0,0,0,0,0,0,0,0,0,0,0,0,0,0,0,0,0,0,0,
0,0,0,0,0,0,0,0,0,0,0,0,0,0,0,0,0,0,0,
0,0,0,0,0,0,0,0,0,0,0,0,0,0,0,0,0,0,0,
0,0,0,0,0,0,0,0,0,0,0,0,0,0,0,0,0,0,0,
0,0,0,0,0,0,0,0,0,0,0,0,0,0,0,0,0,0,0
</data>
 </layer>
 <objectgroup id="5" name="Back"/>
 <objectgroup id="14" name="Back1"/>
 <objectgroup id="16" name="Back2"/>
 <objectgroup id="6" name="Buildings"/>
 <objectgroup id="8" name="Paths"/>
 <objectgroup id="7" name="Front"/>
 <objectgroup id="12" name="Front1"/>
 <objectgroup id="10" name="AlwaysFront"/>
</map>
