<?xml version="1.0" encoding="UTF-8"?>
<map version="1.9" tiledversion="1.9.2" orientation="orthogonal" renderorder="right-down" compressionlevel="0" width="30" height="20" tilewidth="16" tileheight="16" infinite="0" nextlayerid="17" nextobjectid="6">
 <properties>
  <property name="AmbientLight" value="80 80 40"/>
  <property name="ViewportFollowPlayer" type="bool" value="true"/>
  <property name="Warp" value=""/>
 </properties>
 <tileset firstgid="1" name="paths" tilewidth="16" tileheight="16" tilecount="64" columns="4">
  <image source="Content/paths.png" width="64" height="256"/>
 </tileset>
 <tileset firstgid="65" name="Sheet" tilewidth="16" tileheight="16" tilecount="936" columns="26">
  <image source="Sheet.png" width="416" height="576"/>
  <tile id="168">
   <animation>
    <frame tileid="168" duration="400"/>
    <frame tileid="169" duration="400"/>
   </animation>
  </tile>
  <tile id="194">
   <animation>
    <frame tileid="194" duration="400"/>
    <frame tileid="195" duration="400"/>
   </animation>
  </tile>
 </tileset>
 <tileset firstgid="1001" name="furniture" tilewidth="16" tileheight="16" tilecount="2976" columns="32">
  <image source="Content/TileSheets/furniture.png" width="512" height="1488"/>
 </tileset>
 <tileset firstgid="3977" name="mine_frost" tilewidth="16" tileheight="16" tilecount="288" columns="16">
  <image source="Content/Maps/Mines/mine_frost.png" width="256" height="288"/>
 </tileset>
 <tileset firstgid="4265" name="winter_outdoorsTileSheet" tilewidth="16" tileheight="16" tilecount="1975" columns="25">
  <image source="Content/winter_outdoorsTileSheet.png" width="400" height="1264"/>
 </tileset>
 <layer id="1" name="Back" width="30" height="20">
  <data encoding="csv">
0,0,0,0,0,0,0,0,0,0,0,0,0,0,0,0,0,0,0,0,0,0,0,0,0,0,0,0,0,0,
0,0,0,0,0,0,0,0,0,0,0,0,0,0,0,0,0,0,0,0,0,0,0,0,0,0,0,0,0,0,
0,0,0,0,0,0,0,0,0,0,0,0,0,0,0,0,0,0,0,0,4410,4411,0,0,0,0,0,0,0,0,
4114,4115,4114,4195,4195,4195,4195,4195,4195,4195,4195,4195,4195,4195,4195,4195,4195,4195,4195,4195,4195,4195,4195,4195,4195,4195,4195,4195,4114,4115,
4114,4163,4211,4211,4211,4211,4211,4211,4211,4211,4211,4211,4211,4211,4211,4211,4211,4211,4211,4211,4211,4211,4211,4211,4211,4211,4211,4162,4195,4195,
4114,4212,4114,4252,4252,4252,4252,4252,4252,4252,4252,4252,4252,4252,4252,4252,4252,4252,4252,4252,4252,4252,4252,4252,4252,4252,4252,4252,4114,4115,
4114,4115,4114,4252,4253,4253,4252,4252,4252,4252,4252,4252,4253,4253,4253,4253,4253,4253,4253,4253,4253,4253,4253,4252,4253,4253,4252,4252,4114,4115,
4114,4115,4114,4252,4254,4492,4492,4492,4492,4492,4492,4492,4492,4492,4492,4492,4492,4492,4492,4492,4492,4492,4492,4492,4492,4253,4252,4252,4114,4115,
4114,4115,4114,4252,4253,4492,4492,4492,4492,4492,4492,4492,4492,4492,4492,4492,4492,4492,4492,4492,4492,4492,4492,4492,4492,4254,4253,4252,4114,4115,
4114,4115,4114,4253,4253,4492,4492,4492,4492,4492,4492,4492,4492,4492,4492,4492,4492,4492,4492,4492,4492,4492,4492,4492,4492,4253,4253,4252,4114,4115,
4114,4115,4114,4252,4253,4492,4492,4492,4492,4492,4492,4492,4492,4492,4492,4492,4492,4492,4492,4492,4492,4492,4492,4492,4492,4253,4253,4252,4114,4115,
4114,4115,4114,4252,4253,4492,4492,4492,4492,4492,4492,4492,4492,4492,4492,4492,4492,4492,4492,4492,4492,4492,4492,4492,4492,4253,4253,4252,4114,4115,
4114,4115,4114,4252,4254,4492,4492,4492,4492,4492,4492,4492,4492,4492,4492,4492,4492,4492,4492,4492,4492,4492,4492,4492,4492,4253,4252,4252,4114,4115,
4114,4115,4114,4252,4252,4492,4492,4492,4492,4492,4492,4492,4492,4492,4492,4492,4492,4492,4492,4492,4492,4492,4492,4492,4492,4253,4252,4252,4114,4115,
4114,4115,4114,4252,4253,4492,4492,4492,4492,4492,4492,4492,4492,4492,4492,4492,4492,4492,4492,4492,4492,4492,4492,4492,4492,4253,4253,4253,4114,4115,
4114,4115,4114,4253,4253,4492,4492,4492,4492,4492,4492,4492,4492,4492,4492,4492,4492,4492,4492,4492,4492,4492,4492,4492,4492,4253,4253,4253,4114,4115,
4114,4115,4114,4252,4253,4237,4253,4253,4254,4253,4252,4253,4253,4252,4492,4492,4253,4253,4253,4252,4252,4253,4253,4253,4237,4237,4253,4252,4114,4115,
4114,4115,4114,4252,4252,4253,4253,4253,4252,4252,4252,4252,4252,4252,4871,4872,4252,4252,4252,4252,4252,4252,4252,4252,4252,4252,4252,4252,4114,4115,
4114,4115,4114,4115,4114,4115,4114,4115,4114,4115,4114,4115,4114,4115,4948,2147488596,1073745939,4115,4114,4115,4114,4115,4114,4115,4114,4115,4114,4115,4114,4115,
4114,4115,4114,4115,4114,4115,4114,4115,4114,4115,4114,4115,4114,4115,4920,4920,4114,4115,4114,4115,4114,4115,4114,4115,4114,4115,4114,4115,4114,4115
</data>
 </layer>
 <layer id="13" name="Back1" width="30" height="20">
  <data encoding="csv">
0,0,0,0,0,0,0,0,0,0,0,0,0,0,0,0,0,0,0,0,0,0,0,0,0,0,0,0,0,0,
0,0,0,0,0,0,0,0,0,0,0,0,0,0,0,0,0,0,0,0,0,0,0,0,0,0,0,0,0,0,
0,0,0,0,0,0,0,0,0,0,0,0,0,0,0,0,0,0,0,0,0,0,0,0,0,0,0,0,0,0,
0,0,0,0,0,0,0,0,0,0,0,0,0,0,0,0,0,0,0,0,0,0,0,0,0,0,0,0,0,0,
0,0,0,0,0,0,0,0,0,0,0,0,0,0,0,0,0,0,0,0,0,0,0,0,0,0,0,0,0,0,
0,0,0,0,0,0,0,0,0,0,0,0,0,0,0,0,0,0,0,0,0,0,0,0,0,0,0,0,0,0,
0,0,0,0,0,0,0,0,0,0,5559,0,0,0,0,0,0,0,0,2147489208,0,0,0,0,0,0,0,0,0,0,
0,0,0,0,0,0,0,0,0,0,0,0,0,0,0,0,0,0,0,0,0,0,0,0,0,0,0,0,0,0,
0,0,0,0,0,0,495,496,497,521,522,523,495,496,497,521,522,523,495,496,497,521,522,523,0,0,0,0,0,0,
0,0,0,0,0,0,521,522,523,495,496,497,521,522,523,495,496,497,521,522,523,495,496,497,0,0,0,0,0,0,
0,0,0,0,0,0,496,497,521,522,523,495,496,497,521,522,523,495,496,497,521,522,523,495,0,0,0,0,0,0,
0,0,0,0,0,0,522,523,495,496,497,521,522,523,495,496,497,521,522,523,495,496,497,521,0,0,0,0,0,0,
0,0,0,0,0,0,497,521,522,523,495,496,497,521,522,523,495,496,497,521,522,523,495,496,0,0,0,0,0,0,
0,0,0,0,0,0,523,495,496,497,521,522,523,495,496,497,521,522,523,495,496,497,521,522,0,0,0,0,0,0,
0,0,0,0,0,0,521,522,523,495,496,497,521,522,523,495,496,497,521,522,523,495,496,497,0,0,0,0,0,0,
0,0,0,0,0,0,0,0,0,0,0,0,0,0,0,0,0,0,0,0,0,0,0,0,0,0,0,0,0,0,
0,0,0,0,0,0,0,0,0,0,0,0,0,0,0,0,0,0,0,0,0,0,0,0,0,0,0,0,0,0,
0,0,0,0,0,0,0,0,0,0,0,0,0,0,0,0,0,0,0,0,0,0,0,0,0,0,0,0,0,0,
0,0,0,0,0,0,0,0,0,0,0,0,0,0,0,0,0,0,0,0,0,0,0,0,0,0,0,0,0,0,
0,0,0,0,0,0,0,0,0,0,0,0,0,0,0,0,0,0,0,0,0,0,0,0,0,0,0,0,0,0
</data>
 </layer>
 <layer id="15" name="Back2" width="30" height="20">
  <data encoding="csv">
0,0,0,0,0,0,0,0,0,0,0,0,0,0,0,0,0,0,0,0,0,0,0,0,0,0,0,0,0,0,
0,0,0,0,0,0,0,0,0,0,0,0,0,0,0,0,0,0,0,0,0,0,0,0,0,0,0,0,0,0,
0,0,0,0,0,0,0,0,0,0,0,0,0,0,0,0,0,0,0,0,0,0,0,0,0,0,0,0,0,0,
0,0,0,0,0,0,0,0,0,0,0,0,0,0,0,0,0,0,0,0,0,0,0,0,0,0,0,0,0,0,
0,0,0,0,0,0,0,0,0,0,0,0,0,0,0,0,0,0,0,0,0,0,0,0,0,0,0,0,0,0,
0,0,0,0,0,0,0,0,0,0,0,0,0,0,0,0,0,0,0,0,0,0,0,0,0,0,0,0,0,0,
0,0,0,0,0,0,0,0,0,0,0,0,0,0,0,0,0,0,0,0,0,0,0,0,0,0,0,0,0,0,
0,0,0,0,0,0,0,0,0,0,0,0,3791,3792,3793,3794,0,0,0,0,0,0,0,0,0,0,0,0,0,0,
0,0,0,0,0,0,0,0,0,0,0,0,3823,3824,3825,3826,0,0,0,0,0,0,0,0,0,0,0,0,0,0,
0,0,0,0,0,0,0,0,0,0,0,0,3855,3856,3857,3858,0,0,0,0,0,0,0,0,0,0,0,0,0,0,
0,0,0,0,0,0,0,0,0,0,0,0,0,0,0,0,0,0,0,0,0,0,0,0,0,0,0,0,0,0,
0,0,0,0,0,0,0,0,0,0,0,0,0,0,0,0,0,0,0,0,0,0,0,0,0,0,0,0,0,0,
0,0,0,0,0,0,0,0,0,0,0,0,0,0,0,0,0,0,0,0,0,0,0,0,0,0,0,0,0,0,
0,0,0,0,0,0,0,0,0,0,0,0,0,0,0,0,0,0,0,0,0,0,0,0,0,0,0,0,0,0,
0,0,0,0,0,0,0,0,0,0,0,0,0,0,0,0,0,0,0,0,0,0,0,0,0,0,0,0,0,0,
0,0,0,0,0,0,0,0,0,0,0,0,0,0,0,0,0,0,0,0,0,0,0,0,0,0,0,0,0,0,
0,0,0,0,0,0,0,0,0,0,0,0,0,0,0,0,0,0,0,0,0,0,0,0,0,0,0,0,0,0,
0,0,0,0,0,0,0,0,0,0,0,0,0,0,0,0,0,0,0,0,0,0,0,0,0,0,0,0,0,0,
0,0,0,0,0,0,0,0,0,0,0,0,0,0,0,0,0,0,0,0,0,0,0,0,0,0,0,0,0,0,
0,0,0,0,0,0,0,0,0,0,0,0,0,0,0,0,0,0,0,0,0,0,0,0,0,0,0,0,0,0
</data>
 </layer>
 <layer id="2" name="Buildings" width="30" height="20">
  <data encoding="csv">
3992,4105,4106,3981,3982,3983,3984,4050,3981,3982,3983,3984,3981,3982,3983,3984,3981,3982,3983,3984,3982,4051,4052,3982,3984,3984,4053,4070,4071,4072,
4045,4121,4122,3997,3998,4042,4043,4066,3997,4042,4043,4000,3997,4042,4043,4000,3997,4042,4043,4000,3998,4042,4043,3998,4000,4000,4069,4086,4087,4088,
4061,4137,4138,4013,4014,4058,4059,4082,4013,4058,4059,4016,4013,4058,4059,4016,4013,4058,4059,4016,4014,4058,4059,4014,4016,4016,4085,4074,4103,4104,
4077,4153,4154,4029,4030,4031,4032,4098,4029,4030,4031,4032,4029,4030,4031,4032,4029,4030,4031,4032,4030,4099,4100,4030,4032,4032,4101,4118,4119,4120,
4093,4169,0,0,0,0,0,0,0,259,0,0,0,0,0,0,0,0,0,0,259,0,0,0,0,0,0,4134,4135,4136,
4109,0,0,4220,4221,2147487869,2147487869,4221,2147487869,4221,2147487869,2147487869,4221,2147487869,4221,4221,2147487869,2147487869,4221,2147487869,2147487869,4221,2147487869,2147487869,4221,2147487869,4221,4222,0,4136,
4125,0,0,4236,0,4524,2147488697,5049,2147488697,4524,2147488697,5049,2147488697,4524,2147488697,5049,2147488697,4524,2147488697,5049,2147488697,4524,2147488697,5049,2147488697,0,0,4238,0,4152,
4141,0,0,1073746060,4475,259,0,0,0,0,0,0,0,0,0,0,0,0,0,0,0,0,0,0,259,4473,0,1073746062,0,4168,
4157,0,0,4236,4475,0,0,0,0,0,0,0,259,261,262,259,0,0,0,0,0,0,0,0,0,4473,0,4238,0,4184,
4109,0,0,4236,4500,0,0,0,0,0,0,0,0,0,0,0,0,0,0,0,0,0,0,0,0,4498,0,4238,0,4200,
4125,0,0,1073746060,4500,0,0,0,0,0,0,0,0,0,0,0,0,0,0,0,0,0,0,0,0,4473,0,1073746062,0,4136,
4141,0,0,4236,4475,0,0,0,0,0,0,0,0,0,0,0,0,0,0,0,0,0,0,0,0,4498,0,4238,0,4152,
4157,0,0,4236,4500,0,0,0,0,0,0,0,0,0,0,0,0,0,0,0,0,0,0,0,0,4473,0,1073746062,0,4168,
4125,0,0,1073746060,4475,0,0,0,0,0,0,0,0,0,0,0,0,0,0,0,0,0,0,0,0,4498,0,4238,0,4136,
4141,0,0,4236,4500,0,0,0,0,0,0,0,0,0,0,0,0,0,0,0,0,0,0,0,0,4498,0,4238,0,4152,
4157,0,0,4236,4500,259,0,0,0,0,0,0,0,0,0,0,0,0,0,0,0,0,0,0,259,4498,0,1073746062,0,4168,
4109,0,0,1073746060,4549,4449,4476,2147489123,5475,2147489148,5475,2147489123,5550,5449,0,0,5447,4449,2147489123,5475,2147489148,5475,2147489123,5550,4449,4548,0,4238,0,4184,
4109,0,0,4255,4256,2147487904,4256,4256,2147487904,4256,2147487904,4256,4256,2147487904,0,0,4256,4256,2147487904,4256,2147487904,4256,4256,2147487904,4256,4256,2147487904,4257,0,2147487805,
4173,4174,0,0,0,0,0,0,0,0,0,0,0,259,0,0,259,0,0,0,0,0,0,0,0,0,0,0,2147487822,2147487821,
4072,4190,4191,4192,2147487840,2147487839,4191,4192,2147487839,2147487839,4191,4192,2147487840,2147487839,4191,4192,2147487839,2147487839,2147487840,2147487839,2147487840,2147487839,4191,4192,2147487839,4191,4192,2147487839,2147487838,4056
</data>
 </layer>
 <layer id="4" name="Paths" width="30" height="20">
  <data encoding="csv">
0,0,0,0,0,0,0,0,0,0,0,0,0,9,9,0,0,0,0,0,0,0,0,0,0,0,0,0,0,0,
0,0,0,0,0,0,0,0,0,0,0,0,0,9,9,9,9,0,0,0,0,0,0,0,0,0,0,0,0,0,
0,0,0,0,0,0,9,0,0,0,9,0,0,0,9,9,9,9,0,0,0,0,0,0,9,0,0,9,0,0,
0,0,0,0,0,0,0,0,0,0,0,0,0,0,0,0,0,0,0,9,0,0,9,0,0,0,0,0,0,0,
0,0,0,0,0,0,0,0,0,0,0,0,0,0,0,0,0,0,0,0,0,0,0,0,0,0,0,0,0,0,
9,0,0,0,0,0,0,0,0,0,0,0,0,0,0,0,0,0,0,0,0,0,0,0,0,0,0,0,0,9,
0,0,0,0,0,0,0,0,0,0,0,0,0,0,0,0,0,0,0,0,0,0,0,0,0,0,0,0,0,0,
0,0,0,0,0,0,0,0,0,0,0,0,0,0,0,0,0,0,0,0,0,0,0,0,0,0,0,0,0,0,
0,0,0,0,0,9,0,0,9,0,0,9,0,0,9,0,0,9,0,0,9,0,0,9,0,0,0,0,0,0,
0,0,0,0,0,0,0,0,0,0,0,0,0,0,0,0,0,0,0,0,0,0,0,0,0,0,0,0,0,0,
9,0,0,0,0,0,9,0,0,9,0,0,9,0,0,9,0,0,9,0,0,9,0,0,9,0,0,0,0,9,
0,0,9,0,0,0,0,0,0,0,0,0,0,0,0,0,0,0,0,0,0,0,0,0,0,0,0,9,0,0,
0,0,0,0,0,9,0,0,9,0,0,9,0,0,9,0,0,9,0,0,9,0,0,9,0,0,0,0,0,0,
9,0,0,0,0,0,0,0,0,0,0,0,0,0,0,0,0,0,0,0,0,0,0,0,0,0,0,0,0,9,
0,0,0,0,0,0,9,0,0,9,0,0,9,0,0,9,0,0,9,0,0,9,0,0,9,0,0,0,0,0,
0,0,0,0,0,0,0,0,0,0,0,0,0,0,0,0,0,0,0,0,0,0,0,0,0,0,0,0,0,0,
0,0,0,0,0,0,0,0,0,0,0,0,0,0,0,0,0,0,0,0,0,0,0,0,0,0,0,0,0,0,
9,0,0,0,9,0,0,9,0,0,9,0,0,9,0,0,9,0,0,9,0,0,9,0,0,9,0,0,0,9,
0,0,0,0,0,0,0,0,0,0,0,0,0,0,0,0,0,0,0,0,0,0,0,0,0,0,0,0,0,0,
0,0,0,0,9,0,0,0,0,9,0,0,0,9,0,0,0,9,0,0,0,9,0,0,0,9,0,0,0,0
</data>
 </layer>
 <layer id="3" name="Front" width="30" height="20">
  <data encoding="csv">
0,0,0,0,0,0,0,0,0,0,0,0,0,547,548,0,0,0,0,0,0,0,0,0,0,0,0,0,0,0,
0,0,0,0,3654,0,0,0,0,0,0,0,0,0,0,574,575,0,0,0,0,0,0,0,0,0,3654,0,0,0,
0,0,0,0,3686,0,0,0,0,0,0,0,0,0,0,0,0,0,0,0,0,0,0,0,0,0,3686,0,0,0,
0,0,0,0,3718,0,0,0,0,233,0,0,0,0,0,0,0,0,0,0,233,0,0,0,0,0,3718,0,0,0,
0,0,0,0,0,0,0,0,0,0,0,0,0,0,0,0,0,0,0,0,0,0,0,0,0,0,0,0,0,0,
0,0,0,0,0,0,0,0,0,0,0,0,0,0,0,0,0,0,0,0,0,0,0,0,0,0,0,0,0,0,
0,0,0,0,4497,233,0,0,0,0,0,0,0,0,0,0,0,0,0,0,0,0,0,0,233,4547,0,0,0,0,
0,0,0,0,0,0,0,0,0,0,0,0,233,235,236,233,0,0,0,0,0,0,0,0,0,0,0,0,0,0,
0,0,0,0,0,0,0,0,0,0,0,0,0,0,0,0,0,0,0,0,0,0,0,0,0,0,5560,0,0,0,
0,0,0,0,0,0,0,0,0,0,0,0,0,0,0,0,0,0,0,0,0,0,0,0,0,0,0,0,0,0,
0,0,0,0,0,0,0,0,0,0,0,0,0,0,0,0,0,0,0,0,0,0,0,0,0,0,0,0,0,0,
0,0,0,0,0,0,0,0,0,0,0,0,0,0,0,0,0,0,0,0,0,0,0,0,0,0,2147488145,0,0,0,
0,0,0,0,0,0,0,0,0,0,0,0,0,0,0,0,0,0,0,0,0,0,0,0,0,0,0,0,0,0,
0,0,0,0,0,0,0,0,0,0,0,0,0,0,0,0,0,0,0,0,0,0,0,0,0,0,0,0,0,0,
0,0,0,0,0,233,0,0,0,0,0,0,0,0,0,0,0,0,0,0,0,0,0,0,233,0,2147488195,0,0,0,
0,0,0,0,0,0,0,0,0,0,0,0,0,0,0,0,0,0,0,0,0,0,0,0,0,0,0,0,0,0,
0,0,0,0,0,0,0,0,0,0,0,0,0,0,0,0,0,0,0,0,0,0,0,0,0,0,2147489208,0,0,0,
0,0,0,0,0,0,0,0,0,0,0,0,0,233,0,0,233,0,0,0,0,0,0,0,0,0,0,0,0,0,
0,0,0,0,0,0,0,0,0,0,0,0,0,0,0,0,0,0,0,0,0,0,0,0,0,0,0,0,0,0,
0,0,0,0,0,0,0,0,0,0,0,0,0,0,0,0,0,0,0,0,0,0,0,0,0,0,0,0,0,0
</data>
 </layer>
 <layer id="11" name="Front1" width="30" height="20">
  <data encoding="csv">
0,0,0,0,0,0,0,0,0,0,0,0,0,0,0,0,0,0,0,0,0,0,0,0,0,0,0,0,0,0,
0,0,0,0,0,0,0,0,0,0,0,0,0,0,0,0,0,0,0,0,0,0,0,0,0,0,0,0,0,0,
0,0,0,0,0,0,0,0,0,0,0,0,0,0,0,0,0,0,0,0,0,0,0,0,0,0,0,0,0,0,
0,0,0,0,0,0,0,0,0,0,0,0,0,0,0,0,0,0,0,0,0,0,0,0,0,0,0,0,0,0,
0,0,0,0,0,0,0,0,0,0,0,0,0,0,0,0,0,0,0,0,0,0,0,0,0,0,0,0,0,0,
0,0,0,0,0,0,0,0,0,0,0,0,0,0,0,0,0,0,0,0,0,0,0,0,0,0,0,0,0,0,
0,0,0,0,0,0,0,0,0,0,0,0,0,0,0,0,0,0,0,0,0,0,0,0,0,0,0,0,0,0,
0,0,0,0,0,0,0,0,0,0,0,0,0,0,0,0,0,0,0,0,0,0,0,0,0,0,0,0,0,0,
0,0,0,0,0,0,0,0,0,0,0,0,0,0,0,0,0,0,0,0,0,0,0,0,0,0,0,0,0,0,
0,0,0,0,0,0,0,0,0,0,0,0,0,0,0,0,0,0,0,0,0,0,0,0,0,0,0,0,0,0,
0,0,0,0,0,0,0,0,0,0,0,0,0,0,0,0,0,0,0,0,0,0,0,0,0,0,0,0,0,0,
0,0,0,0,0,0,0,0,0,0,0,0,0,0,0,0,0,0,0,0,0,0,0,0,0,0,0,0,0,0,
0,0,0,0,0,0,0,0,0,0,0,0,0,0,0,0,0,0,0,0,0,0,0,0,0,0,0,0,0,0,
0,0,0,0,0,0,0,0,0,0,0,0,0,0,0,0,0,0,0,0,0,0,0,0,0,0,0,0,0,0,
0,0,0,0,0,0,0,0,0,0,0,0,0,0,0,0,0,0,0,0,0,0,0,0,0,0,0,0,0,0,
0,0,0,0,0,0,0,0,0,0,0,0,0,0,0,0,0,0,0,0,0,0,0,0,0,0,0,0,0,0,
0,0,0,0,0,0,0,0,0,0,0,0,0,0,0,0,0,0,0,0,0,0,0,0,0,0,0,0,0,0,
0,0,0,0,0,0,0,0,0,0,0,0,0,2370,0,0,2370,0,0,0,0,0,0,0,0,0,0,0,0,0,
0,0,0,0,0,0,0,0,0,0,0,0,0,0,0,0,0,0,0,0,0,0,0,0,0,0,0,0,0,0,
0,0,0,0,0,0,0,0,0,0,0,0,0,0,0,0,0,0,0,0,0,0,0,0,0,0,0,0,0,0
</data>
 </layer>
 <layer id="9" name="AlwaysFront" width="30" height="20">
  <data encoding="csv">
0,0,0,0,0,0,0,0,0,0,0,0,0,0,0,0,0,0,0,0,0,0,0,0,0,0,0,0,0,0,
0,0,0,0,0,0,0,0,0,0,0,0,0,0,0,0,0,0,0,0,0,0,0,0,0,0,0,0,0,0,
0,0,0,0,0,0,0,0,0,0,0,0,0,0,0,0,0,0,0,0,0,0,0,0,0,0,0,0,0,0,
0,0,0,0,0,0,0,0,0,0,0,0,0,0,0,0,0,0,0,0,0,0,0,0,0,0,0,0,0,0,
0,0,0,0,0,0,0,0,0,0,0,0,0,0,0,0,0,0,0,0,0,0,0,0,0,0,0,0,0,0,
0,0,0,0,0,0,0,0,0,0,0,0,0,0,0,0,0,0,0,0,0,0,0,0,0,0,0,0,0,0,
0,0,0,0,0,0,0,0,0,0,0,0,0,0,0,0,0,0,0,0,0,0,0,0,0,0,0,0,0,0,
0,0,0,0,0,0,0,0,0,0,0,0,0,0,0,0,0,0,0,0,0,0,0,0,0,0,0,0,0,0,
0,0,0,0,0,0,0,0,0,0,0,0,0,0,0,0,0,0,0,0,0,0,0,0,0,0,0,0,0,0,
0,0,0,0,0,0,0,0,0,0,0,0,0,0,0,0,0,0,0,0,0,0,0,0,0,0,0,0,0,0,
0,0,0,0,0,0,0,0,0,0,0,0,0,0,0,0,0,0,0,0,0,0,0,0,0,0,0,0,0,0,
0,0,0,0,0,0,0,0,0,0,0,0,0,0,0,0,0,0,0,0,0,0,0,0,0,0,0,0,0,0,
0,0,0,0,0,0,0,0,0,0,0,0,0,0,0,0,0,0,0,0,0,0,0,0,0,0,0,0,0,0,
0,0,0,0,0,0,0,0,0,0,0,0,0,0,0,0,0,0,0,0,0,0,0,0,0,0,0,0,0,0,
0,0,0,0,0,0,0,0,0,0,0,0,0,0,0,0,0,0,0,0,0,0,0,0,0,0,0,0,0,0,
0,0,0,0,0,0,0,0,0,0,0,0,0,0,0,0,0,0,0,0,0,0,0,0,0,0,0,0,0,0,
0,0,0,0,0,0,0,0,0,0,0,0,0,0,0,0,0,0,0,0,0,0,0,0,0,0,0,0,0,0,
0,0,0,0,0,0,0,0,0,0,0,0,0,0,0,0,0,0,0,0,0,0,0,0,0,0,0,0,0,0,
0,0,0,0,0,0,0,0,0,0,0,0,0,0,0,0,0,0,0,0,0,0,0,0,0,0,0,0,0,0,
0,0,0,0,0,0,0,0,0,0,0,0,0,0,0,0,0,0,0,0,0,0,0,0,0,0,0,0,0,0
</data>
 </layer>
 <objectgroup id="5" name="Back"/>
 <objectgroup id="14" name="Back1"/>
 <objectgroup id="16" name="Back2"/>
 <objectgroup id="6" name="Buildings"/>
 <objectgroup id="8" name="Paths"/>
 <objectgroup id="7" name="Front"/>
 <objectgroup id="12" name="Front1"/>
 <objectgroup id="10" name="AlwaysFront"/>
</map>
