<?xml version="1.0" encoding="UTF-8"?>
<map version="1.9" tiledversion="1.9.2" orientation="orthogonal" renderorder="right-down" compressionlevel="0" width="10" height="9" tilewidth="16" tileheight="16" infinite="0" nextlayerid="17" nextobjectid="6">
 <properties>
  <property name="AmbientLight" value="80 80 40"/>
  <property name="ViewportFollowPlayer" type="bool" value="true"/>
  <property name="Warp" value=""/>
 </properties>
 <tileset firstgid="1" name="paths" tilewidth="16" tileheight="16" tilecount="64" columns="4">
  <image source="Content/paths.png" width="64" height="256"/>
 </tileset>
 <tileset firstgid="65" name="Sheet" tilewidth="16" tileheight="16" tilecount="936" columns="26">
  <image source="Sheet.png" width="416" height="576"/>
 </tileset>
 <tileset firstgid="1001" name="furniture" tilewidth="16" tileheight="16" tilecount="2976" columns="32">
  <image source="Content/TileSheets/furniture.png" width="512" height="1488"/>
 </tileset>
 <tileset firstgid="3977" name="mine_dangerous" tilewidth="16" tileheight="16" tilecount="288" columns="16">
  <image source="Content/Maps/Mines/mine_dangerous.png" width="256" height="288"/>
 </tileset>
 <tileset firstgid="4265" name="townInterior" tilewidth="16" tileheight="16" tilecount="2176" columns="32">
  <image source="Content/townInterior.png" width="512" height="1088"/>
 </tileset>
 <layer id="1" name="Back" width="10" height="9">
  <data encoding="csv">
0,0,0,4050,4051,4052,0,0,0,0,
0,0,0,0,0,0,0,0,0,0,
4142,4142,4142,4142,4142,4142,4142,4142,4142,4142,
4142,4142,4142,4142,4142,4158,4142,4160,4142,4142,
4142,4158,4160,4160,4142,4142,4142,4160,4158,4142,
4142,4142,4142,4142,4142,4160,4158,4142,4142,4142,
0,0,4142,4158,4142,4142,4142,4142,4142,4142,
0,0,4142,4142,4142,4142,4142,4142,4142,4142,
0,0,4142,4142,4142,4142,4142,4142,0,0
</data>
 </layer>
 <layer id="13" name="Back1" width="10" height="9">
  <data encoding="csv">
0,0,0,0,0,0,0,0,0,0,
0,0,0,0,0,0,0,0,0,0,
0,0,0,4029,4030,4031,0,0,0,0,
0,0,3876,3877,3878,3879,3880,0,0,0,
0,0,3908,3909,3910,3911,3912,0,0,0,
0,0,3940,3941,3942,3943,3944,0,5396,0,
0,0,3972,3973,3974,3975,3976,0,0,0,
0,0,0,0,0,0,0,0,0,0,
0,0,0,0,0,0,0,0,0,0
</data>
 </layer>
 <layer id="15" name="Back2" width="10" height="9">
  <data encoding="csv">
0,0,0,0,0,0,0,0,0,0,
0,0,0,0,0,0,0,0,0,0,
0,0,0,3547,3548,3549,0,0,0,0,
0,0,0,3579,3580,3581,0,0,2147487759,0,
0,0,0,0,0,0,0,0,0,0,
0,6352,0,0,0,0,0,0,5120,0,
0,0,0,0,0,0,0,0,0,0,
0,0,0,0,0,0,0,0,0,0,
0,0,0,0,0,0,0,0,0,0
</data>
 </layer>
 <layer id="2" name="Buildings" width="10" height="9">
  <data encoding="csv">
3992,4047,4050,4050,4051,4052,4052,2147487698,2147487695,3989,
4045,4074,4082,4013,4014,4015,2147487731,2147487730,4090,2147487693,
4061,4095,4098,0,0,0,2147487747,2147487746,2147487743,2147487709,
4077,4111,0,0,0,0,0,5624,5625,2147487725,
4109,6320,0,3611,3612,3613,0,0,5632,4152,
2147487831,6401,0,4783,4784,4849,0,5444,4182,4183,
3992,2147487846,2147487845,0,0,0,0,4197,4198,4056,
4002,4003,4190,2147487845,0,0,4197,2147487838,4022,4023,
4024,4056,4056,4056,4192,2147487840,4056,4056,4038,4039
</data>
 </layer>
 <layer id="4" name="Paths" width="10" height="9">
  <data encoding="csv">
0,0,0,0,0,0,0,0,0,0,
0,9,0,0,0,0,0,0,9,0,
0,0,0,0,0,0,0,0,0,0,
0,0,0,0,0,0,0,0,0,0,
0,0,0,0,9,0,0,0,0,0,
0,9,0,0,0,0,0,0,9,0,
0,0,0,0,0,0,0,0,0,0,
0,0,0,0,0,0,0,0,0,0,
0,0,0,0,0,0,0,0,0,0
</data>
 </layer>
 <layer id="3" name="Front" width="10" height="9">
  <data encoding="csv">
0,0,0,0,0,0,0,0,0,0,
0,0,0,3515,3516,3517,0,0,0,0,
0,0,0,3550,3551,3552,0,5592,5593,0,
0,5751,0,3582,3583,3584,0,0,5600,0,
0,6320,0,4751,4752,4817,0,0,0,0,
0,2147487830,0,0,0,0,0,0,0,0,
0,0,0,0,0,0,0,0,0,0,
0,0,0,0,0,0,0,0,0,0,
0,0,0,0,0,0,0,0,0,0
</data>
 </layer>
 <layer id="11" name="Front1" width="10" height="9">
  <data encoding="csv">
0,0,0,0,0,0,0,0,0,0,
0,0,0,0,0,0,0,0,0,0,
0,0,0,0,0,0,0,0,0,0,
0,0,0,0,0,0,0,0,0,0,
0,0,0,5327,5310,2812,0,0,0,0,
0,0,0,0,0,0,0,0,0,0,
0,0,0,0,0,0,0,0,0,0,
0,0,0,0,0,0,0,0,0,0,
0,0,0,0,0,0,0,0,0,0
</data>
 </layer>
 <layer id="9" name="AlwaysFront" width="10" height="9">
  <data encoding="csv">
0,0,0,0,0,0,0,0,0,0,
0,0,0,0,0,0,0,0,0,0,
0,0,0,0,0,0,0,0,0,0,
0,0,0,0,0,0,0,0,0,0,
0,0,0,0,0,0,0,0,0,0,
0,0,0,0,0,0,0,0,0,0,
0,0,0,0,0,0,0,0,0,0,
0,0,0,0,0,0,0,0,0,0,
0,0,0,0,0,0,0,0,0,0
</data>
 </layer>
 <objectgroup id="5" name="Back"/>
 <objectgroup id="14" name="Back1"/>
 <objectgroup id="16" name="Back2"/>
 <objectgroup id="6" name="Buildings"/>
 <objectgroup id="8" name="Paths"/>
 <objectgroup id="7" name="Front"/>
 <objectgroup id="12" name="Front1"/>
 <objectgroup id="10" name="AlwaysFront"/>
</map>
