<?xml version="1.0" encoding="UTF-8"?>
<map version="1.9" tiledversion="1.9.2" orientation="orthogonal" renderorder="right-down" compressionlevel="0" width="5" height="9" tilewidth="16" tileheight="16" infinite="0" nextlayerid="15" nextobjectid="6">
 <properties>
  <property name="AmbientLight" value="80 80 40"/>
  <property name="ViewportFollowPlayer" type="bool" value="true"/>
  <property name="Warp" value=""/>
 </properties>
 <tileset firstgid="1" name="paths" tilewidth="16" tileheight="16" tilecount="64" columns="4">
  <image source="Content/paths.png" width="64" height="256"/>
 </tileset>
 <tileset firstgid="65" name="untitled tile sheet" tilewidth="16" tileheight="16" tilecount="288" columns="16">
  <image source="Content/Maps/Mines/mine.png" width="256" height="288"/>
 </tileset>
 <tileset firstgid="353" name="spring_outdoorsTileSheet" tilewidth="16" tileheight="16" tilecount="1975" columns="25">
  <image source="Content/spring_outdoorsTileSheet.png" width="400" height="1264"/>
 </tileset>
 <tileset firstgid="2328" name="Sheet" tilewidth="16" tileheight="16" tilecount="936" columns="26">
  <image source="Sheet.png" width="416" height="576"/>
 </tileset>
 <tileset firstgid="3264" name="winter_outdoorsTileSheet" tilewidth="16" tileheight="16" tilecount="1975" columns="25">
  <image source="Content/winter_outdoorsTileSheet.png" width="400" height="1264"/>
 </tileset>
 <tileset firstgid="5239" name="spring_town" tilewidth="16" tileheight="16" tilecount="2304" columns="32">
  <image source="Content/spring_town.png" width="512" height="1152"/>
 </tileset>
 <layer id="1" name="Back" width="5" height="9">
  <data encoding="csv">
0,0,0,0,0,
0,0,0,0,0,
0,0,0,0,0,
0,0,0,0,0,
0,0,0,0,0,
0,0,0,0,0,
0,0,0,0,0,
0,0,0,0,0,
0,0,0,0,0
</data>
 </layer>
 <layer id="13" name="Back1" width="5" height="9">
  <data encoding="csv">
0,0,0,0,0,
0,0,0,0,0,
0,0,0,0,0,
0,0,0,0,0,
0,0,0,0,0,
0,0,0,0,0,
0,0,0,0,0,
0,0,0,0,0,
0,0,0,0,0
</data>
 </layer>
 <layer id="2" name="Buildings" width="5" height="9">
  <data encoding="csv">
0,0,2339,0,0,
0,0,2365,0,0,
0,0,0,0,0,
0,0,0,0,0,
0,0,0,0,0,
0,0,0,0,0,
2360,2414,2361,2414,2362,
2386,3221227807,2387,3221227807,2388,
0,0,2413,0,0
</data>
 </layer>
 <layer id="4" name="Paths" width="5" height="9">
  <data encoding="csv">
0,0,9,0,0,
0,0,0,0,0,
0,0,0,0,0,
0,0,0,0,0,
9,9,9,9,9,
9,0,0,0,9,
9,0,0,0,9,
9,9,0,9,9,
0,0,0,0,0
</data>
 </layer>
 <layer id="3" name="Front" width="5" height="9">
  <data encoding="csv">
0,0,2339,0,0,
0,0,0,0,0,
0,0,0,0,0,
0,0,0,0,0,
2334,2335,2335,2335,2336,
2360,2414,2414,2414,2362,
0,0,0,0,0,
0,2412,0,0,0,
0,0,0,0,0
</data>
 </layer>
 <layer id="11" name="Front1" width="5" height="9">
  <data encoding="csv">
0,0,2444,0,0,
0,0,0,0,0,
0,0,0,0,0,
0,0,0,0,0,
0,0,0,0,0,
0,0,0,0,0,
0,0,0,0,0,
0,0,0,0,0,
0,0,0,0,0
</data>
 </layer>
 <layer id="9" name="AlwaysFront" width="5" height="9">
  <data encoding="csv">
0,0,0,0,0,
0,0,0,0,0,
0,0,0,0,0,
0,0,0,0,0,
0,0,0,0,0,
0,0,0,0,0,
0,0,0,0,0,
0,0,0,0,0,
0,0,0,0,0
</data>
 </layer>
 <objectgroup id="5" name="Back"/>
 <objectgroup id="14" name="Back1"/>
 <objectgroup id="6" name="Buildings"/>
 <objectgroup id="8" name="Paths"/>
 <objectgroup id="7" name="Front"/>
 <objectgroup id="12" name="Front1"/>
 <objectgroup id="10" name="AlwaysFront"/>
</map>
