<?xml version="1.0" encoding="UTF-8"?>
<map version="1.9" tiledversion="1.9.2" orientation="orthogonal" renderorder="right-down" compressionlevel="0" width="10" height="9" tilewidth="16" tileheight="16" infinite="0" nextlayerid="17" nextobjectid="6">
 <properties>
  <property name="AmbientLight" value="80 80 40"/>
  <property name="ViewportFollowPlayer" type="bool" value="true"/>
  <property name="Warp" value=""/>
 </properties>
 <tileset firstgid="1" name="paths" tilewidth="16" tileheight="16" tilecount="64" columns="4">
  <image source="Content/paths.png" width="64" height="256"/>
 </tileset>
 <tileset firstgid="65" name="Sheet" tilewidth="16" tileheight="16" tilecount="936" columns="26">
  <image source="Sheet.png" width="416" height="576"/>
 </tileset>
 <tileset firstgid="1001" name="mine_frost_dark" tilewidth="16" tileheight="16" tilecount="288" columns="16">
  <image source="Content/Maps/Mines/mine_frost_dark.png" width="256" height="288"/>
 </tileset>
 <tileset firstgid="1289" name="winter_outdoorsTileSheet" tilewidth="16" tileheight="16" tilecount="1975" columns="25">
  <image source="Content/winter_outdoorsTileSheet.png" width="400" height="1264"/>
 </tileset>
 <tileset firstgid="3264" name="samshowtiles" tilewidth="16" tileheight="16" tilecount="140" columns="10">
  <image source="Content/samshowtiles.png" width="160" height="224"/>
 </tileset>
 <tileset firstgid="3404" name="furniture" tilewidth="16" tileheight="16" tilecount="2976" columns="32">
  <image source="Content/TileSheets/furniture.png" width="512" height="1488"/>
 </tileset>
 <tileset firstgid="6380" name="furniture_3" tilewidth="16" tileheight="16" tilecount="351" columns="13">
  <image source="Content/TileSheets/furniture_3.png" width="208" height="432"/>
 </tileset>
 <layer id="1" name="Back" width="10" height="9">
  <data encoding="csv">
0,0,0,0,0,0,0,0,0,0,
0,0,0,0,0,0,0,0,0,0,
0,0,0,0,0,0,0,0,0,0,
0,1850,1851,2147485499,1851,1851,2147485499,1851,1852,0,
0,1907,2147485524,1853,1876,2147485524,1896,1878,2147485555,0,
2147485524,1876,1847,2147485524,2147485524,1903,1876,2147485524,1876,1876,
2147485524,1876,1876,1895,1876,1876,1974,1897,1876,2147485524,
0,0,2147485524,1972,1973,2147485621,2147485620,1876,0,0,
0,0,0,0,0,0,0,0,0,0
</data>
 </layer>
 <layer id="13" name="Back1" width="10" height="9">
  <data encoding="csv">
0,0,0,0,0,0,0,0,0,0,
0,0,0,0,0,0,0,0,0,0,
0,0,0,0,0,0,0,0,0,0,
0,0,0,0,0,0,0,0,0,0,
0,5494,5496,0,0,0,0,0,0,0,
0,5526,5528,0,5068,5069,5070,5181,5182,0,
0,5558,0,0,5100,5101,5102,5213,5214,0,
0,0,0,0,0,0,0,0,0,0,
0,0,0,0,0,0,0,0,0,0
</data>
 </layer>
 <layer id="15" name="Back2" width="10" height="9">
  <data encoding="csv">
0,0,0,0,0,0,0,0,0,0,
0,0,0,0,0,0,0,0,0,0,
0,0,0,0,0,0,0,0,0,0,
0,0,0,0,0,0,0,0,0,0,
0,0,0,0,0,0,0,0,0,0,
0,0,0,0,0,0,0,0,0,0,
0,0,0,0,0,0,0,0,4768,0,
0,0,0,0,0,0,0,0,0,0,
0,0,0,0,0,0,0,0,0,0
</data>
 </layer>
 <layer id="2" name="Buildings" width="10" height="9">
  <data encoding="csv">
1016,1071,1075,1005,1077,1074,1075,1005,1094,1016,
1069,1087,1107,1108,1109,1106,1107,1108,1110,2147484717,
1101,1098,1123,1124,1125,1122,1123,1124,1114,2147484749,
1117,1135,3380,3381,259,0,0,0,1158,2147484765,
1133,0,0,0,0,3382,3383,0,2147487112,2147484781,
1149,0,0,0,0,0,0,0,0,2147484797,
1197,1198,5560,0,0,0,0,0,2147484846,2147484845,
1016,1214,2147484863,1217,0,0,2147484865,1215,2147484862,1016,
1016,1016,1016,1610613805,1610613885,1610613901,3758097453,1016,1016,1016
</data>
 </layer>
 <layer id="4" name="Paths" width="10" height="9">
  <data encoding="csv">
0,0,0,0,0,0,0,0,0,0,
0,0,0,9,0,0,9,0,0,0,
0,9,0,0,0,0,0,0,9,0,
0,0,0,0,0,0,0,0,0,0,
0,0,0,0,0,0,0,0,0,0,
0,0,0,0,0,9,0,0,0,0,
0,0,0,0,0,0,0,0,0,0,
0,0,0,0,0,0,0,0,0,0,
0,0,0,0,0,0,0,0,0,0
</data>
 </layer>
 <layer id="3" name="Front" width="10" height="9">
  <data encoding="csv">
0,0,0,0,0,0,0,0,0,0,
0,0,3289,3289,3289,3289,3289,3289,0,0,
0,0,3370,3371,233,0,0,0,0,0,
0,5462,5464,0,0,3372,3373,0,2147487080,0,
0,5497,5499,0,0,0,0,0,0,0,
0,5529,5531,0,0,0,0,0,0,0,
0,0,0,0,0,0,0,0,0,0,
0,0,0,0,0,0,0,0,0,0,
0,0,0,0,0,0,0,0,0,0
</data>
 </layer>
 <layer id="11" name="Front1" width="10" height="9">
  <data encoding="csv">
0,0,0,0,0,0,0,0,0,0,
0,0,0,0,0,0,0,0,0,0,
0,0,0,0,0,0,0,0,0,0,
0,0,0,0,0,0,0,0,0,0,
0,0,0,0,0,0,0,0,0,0,
0,0,0,0,0,0,0,0,0,0,
0,0,0,0,0,0,0,0,0,0,
0,0,0,0,0,0,0,0,0,0,
0,0,0,0,0,0,0,0,0,0
</data>
 </layer>
 <layer id="9" name="AlwaysFront" width="10" height="9">
  <data encoding="csv">
0,0,0,0,0,0,0,0,0,0,
0,0,0,0,0,0,0,0,0,0,
0,0,0,0,0,0,0,0,0,0,
0,0,0,0,0,0,0,0,0,0,
0,0,0,0,0,0,0,0,0,0,
0,0,0,0,0,0,0,0,0,0,
0,0,0,0,0,0,0,0,0,0,
0,0,0,0,0,0,0,0,0,0,
0,0,0,0,0,0,0,0,0,0
</data>
 </layer>
 <objectgroup id="5" name="Back"/>
 <objectgroup id="14" name="Back1"/>
 <objectgroup id="16" name="Back2"/>
 <objectgroup id="6" name="Buildings"/>
 <objectgroup id="8" name="Paths"/>
 <objectgroup id="7" name="Front"/>
 <objectgroup id="12" name="Front1"/>
 <objectgroup id="10" name="AlwaysFront"/>
</map>
