<?xml version="1.0" encoding="UTF-8"?>
<map version="1.9" tiledversion="1.9.2" orientation="orthogonal" renderorder="right-down" compressionlevel="0" width="10" height="9" tilewidth="16" tileheight="16" infinite="0" nextlayerid="17" nextobjectid="6">
 <properties>
  <property name="AmbientLight" value="80 80 40"/>
  <property name="ViewportFollowPlayer" type="bool" value="true"/>
  <property name="Warp" value=""/>
 </properties>
 <tileset firstgid="1" name="paths" tilewidth="16" tileheight="16" tilecount="64" columns="4">
  <image source="Content/paths.png" width="64" height="256"/>
 </tileset>
 <tileset firstgid="65" name="Sheet" tilewidth="16" tileheight="16" tilecount="936" columns="26">
  <image source="Sheet.png" width="416" height="576"/>
 </tileset>
 <tileset firstgid="1001" name="furniture" tilewidth="16" tileheight="16" tilecount="2976" columns="32">
  <image source="Content/TileSheets/furniture.png" width="512" height="1488"/>
 </tileset>
 <tileset firstgid="3977" name="townInterior" tilewidth="16" tileheight="16" tilecount="2176" columns="32">
  <image source="Content/townInterior.png" width="512" height="1088"/>
 </tileset>
 <tileset firstgid="6153" name="mine" tilewidth="16" tileheight="16" tilecount="288" columns="16">
  <image source="Content/Maps/Mines/mine.png" width="256" height="288"/>
 </tileset>
 <layer id="1" name="Back" width="10" height="9">
  <data encoding="csv">
0,0,0,0,0,0,0,0,0,0,
0,0,0,0,0,0,0,0,0,0,
6318,6318,6318,6318,6318,6318,6318,6318,6318,6318,
6318,6318,6318,6336,6334,6336,6318,6336,6318,6318,
6318,6318,6336,6318,6318,6318,6318,6336,6334,6318,
6318,6318,6334,6336,6318,6318,6318,6318,6318,6318,
6318,6318,6318,6318,6318,6336,6318,6336,6318,6318,
6318,6318,6318,6336,6334,6336,6318,6334,6318,6318,
6318,6318,6318,6336,6318,6318,6318,6318,6318,6318
</data>
 </layer>
 <layer id="13" name="Back1" width="10" height="9">
  <data encoding="csv">
0,0,0,0,0,0,0,0,0,0,
0,0,0,0,0,0,0,0,0,0,
0,0,0,0,0,0,0,0,0,0,
0,0,0,0,0,0,3803,3804,2147489935,0,
0,2910,2911,2912,0,0,3835,3836,3270,0,
0,2942,2943,2944,3799,3802,3867,3868,3870,0,
0,0,0,0,3831,3834,0,0,0,0,
0,0,0,0,3863,3866,0,0,0,0,
0,0,0,0,0,0,0,0,0,0
</data>
 </layer>
 <layer id="15" name="Back2" width="10" height="9">
  <data encoding="csv">
0,0,0,0,0,0,0,0,0,0,
0,0,0,0,0,0,0,0,0,0,
0,0,0,0,0,0,0,0,0,0,
0,0,0,0,0,0,0,3237,3238,0,
0,0,0,0,0,0,0,0,0,0,
0,4715,0,0,0,0,0,0,0,0,
0,0,0,0,0,0,0,0,0,0,
0,0,0,0,0,0,0,0,0,0,
0,0,0,0,0,0,0,0,0,0
</data>
 </layer>
 <layer id="2" name="Buildings" width="10" height="9">
  <data encoding="csv">
6232,6223,6226,6227,6228,6229,6227,6228,2147489871,2147489880,
6221,6255,6258,6259,6258,6259,6260,6261,2147489903,2147489869,
6253,6271,6274,2147489925,6276,2147489923,6276,6277,2147489919,2147489901,
6269,4607,4608,4475,4476,4477,0,0,0,2147489917,
6333,0,0,0,0,0,0,0,0,2147489981,
6349,6350,0,0,0,0,0,3301,3302,2147489997,
6232,6366,2147490021,0,0,0,0,6373,2147490014,2147489880,
6232,6232,2147490037,0,0,0,0,6389,2147489880,2147489880,
6232,6232,2147490022,6367,6368,6367,6368,6374,2147489880,2147489880
</data>
 </layer>
 <layer id="4" name="Paths" width="10" height="9">
  <data encoding="csv">
0,0,0,0,0,0,0,0,0,0,
0,0,0,0,0,0,0,9,0,0,
9,0,0,0,0,0,0,0,0,9,
0,0,0,0,0,0,0,0,0,0,
0,0,0,0,0,0,0,0,0,0,
0,0,0,0,0,9,0,0,0,0,
0,0,0,0,0,0,0,0,0,0,
0,0,0,0,0,0,0,0,0,0,
0,0,0,0,0,0,0,0,0,0
</data>
 </layer>
 <layer id="3" name="Front" width="10" height="9">
  <data encoding="csv">
0,4507,4508,0,0,0,0,0,0,0,
0,4539,4540,4415,4412,4413,5312,6266,0,0,
6250,4575,4576,4443,4444,4445,5344,3205,3206,6266,
0,0,0,0,0,0,0,3239,3240,0,
0,4683,0,0,0,0,0,3271,3272,0,
0,0,0,0,0,0,0,0,2147489998,0,
0,0,0,0,0,0,0,0,0,0,
0,0,0,0,0,0,0,0,0,0,
0,0,0,0,0,0,0,0,0,0
</data>
 </layer>
 <layer id="11" name="Front1" width="10" height="9">
  <data encoding="csv">
0,0,0,0,0,0,0,0,0,0,
0,0,0,0,0,0,0,0,0,0,
0,0,0,4447,0,0,0,0,0,0,
0,0,0,0,0,0,0,0,0,0,
0,0,0,0,0,0,0,0,0,0,
0,0,0,0,0,0,0,0,0,0,
0,0,0,0,0,0,0,0,0,0,
0,0,0,0,0,0,0,0,0,0,
0,0,0,0,0,0,0,0,0,0
</data>
 </layer>
 <layer id="9" name="AlwaysFront" width="10" height="9">
  <data encoding="csv">
0,0,0,0,0,0,0,0,0,0,
0,0,0,0,0,0,0,0,0,0,
0,0,0,0,0,0,0,0,0,0,
0,0,0,0,0,0,0,0,0,0,
0,0,0,0,0,0,0,0,0,0,
0,0,0,0,0,0,0,0,0,0,
0,0,0,0,0,0,0,0,0,0,
0,0,0,0,0,0,0,0,0,0,
0,0,0,0,0,0,0,0,0,0
</data>
 </layer>
 <objectgroup id="5" name="Back"/>
 <objectgroup id="14" name="Back1"/>
 <objectgroup id="16" name="Back2"/>
 <objectgroup id="6" name="Buildings"/>
 <objectgroup id="8" name="Paths"/>
 <objectgroup id="7" name="Front"/>
 <objectgroup id="12" name="Front1"/>
 <objectgroup id="10" name="AlwaysFront"/>
</map>
