<?xml version="1.0" encoding="UTF-8"?>
<map version="1.9" tiledversion="1.9.2" orientation="orthogonal" renderorder="right-down" compressionlevel="0" width="20" height="10" tilewidth="16" tileheight="16" infinite="0" nextlayerid="17" nextobjectid="6">
 <properties>
  <property name="AmbientLight" value="80 80 40"/>
  <property name="ViewportFollowPlayer" type="bool" value="true"/>
  <property name="Warp" value=""/>
 </properties>
 <tileset firstgid="1" name="paths" tilewidth="16" tileheight="16" tilecount="64" columns="4">
  <image source="Content/paths.png" width="64" height="256"/>
 </tileset>
 <tileset firstgid="65" name="mine" tilewidth="16" tileheight="16" tilecount="288" columns="16">
  <image source="Content/Maps/Mines/mine.png" width="256" height="288"/>
 </tileset>
 <tileset firstgid="353" name="townInterior" tilewidth="16" tileheight="16" tilecount="2176" columns="32">
  <image source="Content/townInterior.png" width="512" height="1088"/>
 </tileset>
 <tileset firstgid="2529" name="furniture" tilewidth="16" tileheight="16" tilecount="2976" columns="32">
  <image source="Content/TileSheets/furniture.png" width="512" height="1488"/>
 </tileset>
 <layer id="1" name="Back" width="20" height="10">
  <data encoding="csv">
0,0,0,0,0,0,0,0,0,0,0,0,0,0,0,0,0,0,0,0,
0,202,203,204,0,0,0,0,0,0,0,0,0,0,0,0,0,0,0,0,
0,218,219,220,203,202,203,204,0,0,0,0,0,0,0,202,203,204,0,0,
202,234,235,236,219,218,219,220,204,202,203,204,202,203,204,218,219,220,203,204,
218,219,220,234,220,205,235,236,220,218,219,220,202,202,220,202,235,236,219,220,
234,235,236,220,202,202,234,220,202,234,220,205,234,235,236,202,202,202,235,236,
202,203,204,203,202,202,203,202,220,203,204,202,203,202,202,203,204,202,203,204,
218,202,235,236,202,203,204,205,203,204,202,203,204,205,202,202,203,205,203,204,
234,218,219,205,202,219,220,202,219,220,202,235,236,202,202,218,219,218,219,220,
0,234,235,236,234,235,236,234,235,236,234,235,236,234,234,235,236,234,235,236
</data>
 </layer>
 <layer id="13" name="Back1" width="20" height="10">
  <data encoding="csv">
0,0,0,0,0,0,0,0,0,0,0,0,0,0,0,0,0,0,0,0,
0,0,0,0,0,0,0,0,0,0,0,0,0,0,0,0,0,0,0,0,
0,0,0,0,0,0,0,0,0,0,0,0,0,0,0,0,0,0,0,0,
0,0,0,0,0,0,0,0,0,0,0,0,0,0,0,0,0,0,0,0,
0,0,0,5323,5326,0,0,0,5404,5408,0,2684359927,2684359895,2684359863,2684359831,5327,5330,0,0,0,
0,0,0,5387,5390,0,0,0,5436,5440,0,2684359930,2684359898,2684359866,2684359834,5391,5394,5323,5326,0,
0,0,0,0,0,5399,5403,0,5468,5472,0,3758101754,3758101722,3758101690,3758101658,0,0,5355,5358,0,
0,0,4496,4497,0,5495,5499,0,5500,5504,0,3758101754,3758101722,3758101690,3758101658,0,0,5387,5390,0,
0,3945,4560,4561,0,0,0,0,0,0,0,2684359932,2684359900,2684359868,2684359836,0,0,0,0,0,
0,0,0,0,0,0,0,3949,0,0,3941,0,0,0,0,3943,0,0,0,0
</data>
 </layer>
 <layer id="15" name="Back2" width="20" height="10">
  <data encoding="csv">
0,0,0,0,0,0,0,0,0,0,0,0,0,0,0,0,0,0,0,0,
0,0,0,0,0,0,0,0,0,0,0,0,0,0,0,0,0,0,0,0,
0,0,0,0,0,0,0,0,0,0,0,0,0,0,0,0,0,0,0,0,
0,0,0,0,0,0,0,0,0,0,0,0,0,0,0,0,0,0,0,0,
0,0,0,0,0,0,0,0,0,0,0,0,0,0,0,0,0,0,0,0,
0,0,0,0,0,0,0,0,0,0,0,0,0,0,0,0,0,0,0,0,
0,0,0,0,0,0,0,0,0,0,0,0,0,0,0,0,0,0,0,0,
0,0,0,0,0,0,0,0,0,0,0,0,0,0,0,0,0,0,0,0,
0,0,0,0,0,0,0,0,0,0,0,0,0,0,0,0,0,0,0,0,
0,0,0,0,0,0,0,0,0,0,0,0,0,0,0,0,0,0,0,0
</data>
 </layer>
 <layer id="2" name="Buildings" width="20" height="10">
  <data encoding="csv">
134,135,151,138,139,140,141,140,141,138,139,140,141,138,139,140,141,158,159,160,
133,150,151,154,130,131,157,156,157,130,131,156,157,154,130,131,157,174,175,176,
149,162,167,170,146,147,173,172,173,146,147,172,173,170,146,147,173,190,178,192,
165,182,183,186,187,188,189,188,189,186,187,188,189,186,187,188,189,206,207,208,
181,198,199,3944,0,0,1187,2147484834,3940,0,0,853,734,735,1168,0,3948,222,223,224,
229,753,0,0,0,0,0,0,0,0,0,0,0,0,0,0,0,0,0,240,
229,1103,1104,0,0,0,0,0,0,0,0,0,0,0,0,0,0,0,0,2147483893,
245,1135,1136,0,0,0,0,0,0,0,0,0,0,0,0,0,0,0,2147483910,2147483909,
261,262,0,0,0,0,0,0,0,0,0,0,0,0,0,0,0,270,271,1610613014,
160,278,2147483928,279,280,2147483927,2147483928,279,280,2147483927,2147483928,279,280,2147483927,2147483928,279,280,286,144,144
</data>
 </layer>
 <layer id="4" name="Paths" width="20" height="10">
  <data encoding="csv">
0,0,0,0,0,0,0,0,0,0,0,0,0,0,0,0,0,0,0,0,
0,0,0,0,0,0,0,0,0,0,0,0,0,0,0,0,0,0,0,0,
0,9,0,9,0,0,9,0,0,9,0,0,9,0,0,9,0,0,9,0,
0,0,0,0,0,0,0,0,0,0,0,0,0,0,0,0,0,0,0,0,
0,0,0,0,0,0,0,0,0,0,0,0,0,0,0,0,0,0,0,0,
0,0,0,0,0,0,0,0,0,0,0,0,0,0,0,0,0,0,0,0,
0,0,0,0,0,0,0,0,0,0,0,0,0,0,0,0,0,0,0,0,
0,0,9,0,0,9,0,0,0,9,0,0,0,9,0,0,9,0,0,0,
0,0,0,0,0,0,0,0,0,0,0,0,0,0,0,0,0,0,0,0,
0,0,0,0,0,0,0,0,0,0,0,0,0,0,0,0,0,0,0,0
</data>
 </layer>
 <layer id="3" name="Front" width="20" height="10">
  <data encoding="csv">
0,0,0,0,0,0,0,0,0,0,0,0,0,0,0,0,0,0,0,0,
0,0,0,695,0,0,2147488028,2147488027,0,0,0,0,4375,4376,0,0,659,0,0,0,
0,0,0,0,0,0,2147488060,2147488059,0,0,0,0,4407,4408,0,0,0,0,0,0,
0,689,690,3912,0,0,0,0,3908,0,0,821,702,703,0,0,3916,0,0,0,
0,721,0,0,0,0,0,0,0,0,0,0,0,0,0,0,0,0,0,0,
0,1071,1072,0,0,0,0,0,0,0,0,0,0,0,0,0,0,0,0,0,
0,0,0,0,0,0,0,0,0,0,0,0,0,0,0,0,0,0,0,0,
0,3913,0,0,0,0,0,0,0,0,0,0,0,0,0,0,0,0,0,0,
0,0,0,0,0,0,0,3917,0,0,3909,0,0,0,0,3911,0,0,0,0,
0,0,0,0,0,0,0,0,0,0,0,0,0,0,0,0,0,0,0,0
</data>
 </layer>
 <layer id="11" name="Front1" width="20" height="10">
  <data encoding="csv">
0,0,0,0,0,0,0,0,0,0,0,0,0,0,0,0,0,0,0,0,
0,0,0,0,0,0,0,0,0,0,0,0,0,0,0,0,0,0,0,0,
0,0,0,0,0,0,0,0,0,0,0,0,0,0,0,0,0,0,0,0,
0,0,0,0,0,0,0,0,0,0,0,0,0,0,0,0,0,0,0,0,
0,0,0,0,0,0,0,0,0,0,0,0,0,0,0,0,0,0,0,0,
0,0,0,0,0,0,0,0,0,0,0,0,0,0,0,0,0,0,0,0,
0,0,0,0,0,0,0,0,0,0,0,0,0,0,0,0,0,0,0,0,
0,0,0,0,0,0,0,0,0,0,0,0,0,0,0,0,0,0,0,0,
0,0,0,0,0,0,0,0,0,0,0,0,0,0,0,0,0,0,0,0,
0,0,0,0,0,0,0,0,0,0,0,0,0,0,0,0,0,0,0,0
</data>
 </layer>
 <layer id="9" name="AlwaysFront" width="20" height="10">
  <data encoding="csv">
0,0,0,0,0,0,0,0,0,0,0,0,0,0,0,0,0,0,0,0,
0,0,0,0,0,0,0,0,0,0,0,0,0,0,0,0,0,0,0,0,
0,0,0,0,0,0,0,0,0,0,0,0,0,0,0,0,0,0,0,0,
0,0,0,0,0,0,0,0,0,0,0,0,0,0,0,0,0,0,0,0,
0,0,0,0,0,0,0,0,0,0,0,0,0,0,0,0,0,0,0,0,
0,0,0,0,0,0,0,0,0,0,0,0,0,0,0,0,0,0,0,0,
0,0,0,0,0,0,0,0,0,0,0,0,0,0,0,0,0,0,0,0,
0,0,0,0,0,0,0,0,0,0,0,0,0,0,0,0,0,0,0,0,
0,0,0,0,0,0,0,0,0,0,0,0,0,0,0,0,0,0,0,0,
0,0,0,0,0,0,0,0,0,0,0,0,0,0,0,0,0,0,0,0
</data>
 </layer>
 <objectgroup id="5" name="Back"/>
 <objectgroup id="14" name="Back1"/>
 <objectgroup id="16" name="Back2"/>
 <objectgroup id="6" name="Buildings"/>
 <objectgroup id="8" name="Paths"/>
 <objectgroup id="7" name="Front"/>
 <objectgroup id="12" name="Front1"/>
 <objectgroup id="10" name="AlwaysFront"/>
</map>
